X:1
T:Twa And Twa
M:4/4
L:1/16
K:F
 F3 F F4 F3 A c2 z2| F3 F F4 G3 FE C3| F3 F F3 F F3 A c3 A| B3 G A3 F G3 FE C3|\
 cc c2|
M:4/4
 A F3 F F3 A4 cc c2| A F3 G F3 E C3 cc c2| A F3 F F3 B4 cc c2| A F3 G3 FE C3 z4|\


